assets/img/youtube.svg

<svg width="20" height="16" viewBox="0 0 20 16" fill="none" xmlns="http://www.w3.org/2000/svg">
<path fill-rule="evenodd" clip-rule="evenodd" d="M17.792 1.41471C18.6521 1.64577 19.3325 2.32614 19.5635 3.18621C19.9872 4.75232 20 8.00007 20 8.00007C20 8.00007 20 11.2607 19.5764 12.8139C19.3453 13.674 18.665 14.3544 17.8049 14.5854C16.2516 15.0091 10 15.0091 10 15.0091C10 15.0091 3.74839 15.0091 2.19512 14.5854C1.33504 14.3544 0.654686 13.674 0.42362 12.8139C0 11.2478 0 8.00007 0 8.00007C0 8.00007 0 4.75232 0.410783 3.19905C0.641849 2.33897 1.32221 1.65861 2.18229 1.42755C3.73556 1.00392 9.98716 0.991089 9.98716 0.991089C9.98716 0.991089 16.2388 0.991089 17.792 1.41471ZM13.1836 8.00008L7.99743 11.0039V4.99623L13.1836 8.00008Z" fill="white"/>
</svg>

<svg xmlns="http://www.w3.org/2000/svg" width="20" height="16" fill="none" xmlns:v="https://vecta.io/nano"><path fill-rule="evenodd" d="M17.792 1.415a2.52 2.52 0 0 1 1.771 1.772C19.987 4.752 20 8 20 8s0 3.261-.424 4.814a2.52 2.52 0 0 1-1.771 1.771c-1.553.424-7.805.424-7.805.424s-6.252 0-7.805-.424a2.52 2.52 0 0 1-1.771-1.771C0 11.248 0 8 0 8s0-3.248.411-4.801a2.52 2.52 0 0 1 1.772-1.771C3.736 1.004 9.987.991 9.987.991s6.252 0 7.805.424zM13.184 8l-5.186 3.004V4.996L13.184 8z" fill="#fff"/></svg>
